svgs/matlog.svg

<svg width="192" height="192" viewBox="0 0 192 192" fill="none" xmlns="http://www.w3.org/2000/svg">
<path d="M30 81.384L35.1063 84.5345C35.878 83.2838 36.1638 81.7933 35.9095 80.3458L30 81.384ZM34 22L36.9139 16.7551C35.3673 15.8958 33.5203 15.763 31.8666 16.3921C30.213 17.0211 28.9213 18.348 28.3368 20.0179L34 22ZM70 51.8715L65.0243 55.2245C66.5032 57.4191 69.2453 58.3856 71.7734 57.6034L70 51.8715ZM162 81.384L156.09 80.3458C155.836 81.7933 156.122 83.2838 156.894 84.5345L162 81.384ZM158 22L163.663 20.0179C163.079 18.348 161.787 17.0211 160.133 16.3921C158.48 15.763 156.633 15.8958 155.086 16.7551L158 22ZM122 51.8715L120.227 57.6034C122.755 58.3856 125.497 57.4191 126.976 55.2245L122 51.8715ZM96 164C57.3081 164 28 138.343 28 109H16C16 147.035 52.9538 176 96 176V164ZM28 109C28 100.252 30.5316 91.9489 35.1063 84.5345L24.8937 78.2334C19.2365 87.4024 16 97.8683 16 109H28ZM35.9095 80.3458C34.9965 75.1492 34.2575 65.7313 34.6215 55.1289C34.986 44.5094 36.4433 33.1818 39.6632 23.9821L28.3368 20.0179C24.5567 30.8182 23.014 43.4906 22.6285 54.7171C22.2425 65.9607 23.0035 76.2347 24.0905 82.4222L35.9095 80.3458ZM71.7734 57.6034C79.2848 55.2794 87.4485 54 96 54V42C86.2526 42 76.893 43.4582 68.2266 46.1396L71.7734 57.6034ZM31.0861 27.2449C48.6884 37.0239 57.7719 44.4624 65.0243 55.2245L74.9757 48.5185C66.2281 35.5376 55.3116 26.9761 36.9139 16.7551L31.0861 27.2449ZM96 176C139.046 176 176 147.035 176 109H164C164 138.343 134.692 164 96 164V176ZM176 109C176 97.8683 172.764 87.4024 167.106 78.2334L156.894 84.5345C161.468 91.9489 164 100.252 164 109H176ZM167.91 82.4222C168.997 76.2347 169.757 65.9607 169.371 54.7171C168.986 43.4906 167.443 30.8182 163.663 20.0179L152.337 23.9821C155.557 33.1818 157.014 44.5094 157.379 55.1289C157.743 65.7313 157.003 75.1492 156.09 80.3458L167.91 82.4222ZM123.773 46.1396C115.107 43.4582 105.747 42 96 42V54C104.552 54 112.715 55.2794 120.227 57.6034L123.773 46.1396ZM155.086 16.7551C136.688 26.9761 125.772 35.5376 117.024 48.5185L126.976 55.2245C134.228 44.4624 143.312 37.0239 160.914 27.2449L155.086 16.7551Z" fill="black"/>
<path d="M140 82H80" stroke="black" stroke-width="12" stroke-linecap="round" stroke-linejoin="round"/>
<path d="M140 106H80" stroke="black" stroke-width="12" stroke-linecap="round" stroke-linejoin="round"/>
<path d="M140 130H80" stroke="black" stroke-width="12" stroke-linecap="round" stroke-linejoin="round"/>
<path d="M60 82H52" stroke="black" stroke-width="12" stroke-linecap="round" stroke-linejoin="round"/>
<path d="M60 106H52" stroke="black" stroke-width="12" stroke-linecap="round" stroke-linejoin="round"/>
<path d="M60 130H52" stroke="black" stroke-width="12" stroke-linecap="round" stroke-linejoin="round"/>
</svg>

<svg width="192" height="192" viewBox="0 0 192 192" fill="none" xmlns="http://www.w3.org/2000/svg"><path d="m30 81.384 5.106 3.15a6 6 0 0 0 .803-4.188L30 81.384ZM34 22l2.914-5.245a6 6 0 0 0-8.577 3.263L34 22Zm36 29.871-4.976 3.353a6 6 0 0 0 6.75 2.38L70 51.87Zm92 29.513-5.91-1.038a6 6 0 0 0 .804 4.188l5.106-3.15ZM158 22l5.663-1.982a5.998 5.998 0 0 0-8.577-3.263L158 22Zm-36 29.871-1.773 5.732a6 6 0 0 0 6.749-2.379L122 51.873ZM96 164c-38.692 0-68-25.657-68-55H16c0 38.035 36.954 67 80 67v-12Zm-68-55c0-8.748 2.532-17.051 7.106-24.466l-10.212-6.3C19.237 87.401 16 97.867 16 109h12Zm7.91-28.654c-.913-5.197-1.652-14.615-1.288-25.217.364-10.62 1.821-21.947 5.041-31.147l-11.326-3.964c-3.78 10.8-5.323 23.473-5.709 34.7-.386 11.243.375 21.517 1.462 27.704l11.82-2.076Zm35.863-22.743C79.285 55.28 87.448 54 96 54V42c-9.747 0-19.107 1.458-27.773 4.14l3.546 11.463ZM31.086 27.245c17.602 9.779 26.686 17.217 33.938 27.98l9.952-6.706c-8.748-12.981-19.664-21.543-38.062-31.764l-5.828 10.49ZM96 176c43.046 0 80-28.965 80-67h-12c0 29.343-29.308 55-68 55v12Zm80-67c0-11.132-3.236-21.598-8.894-30.767l-10.212 6.301C161.468 91.95 164 100.252 164 109h12Zm-8.09-26.578c1.087-6.187 1.847-16.461 1.461-27.705-.385-11.226-1.928-23.899-5.708-34.7l-11.326 3.965c3.22 9.2 4.677 20.527 5.042 31.147.364 10.602-.376 20.02-1.289 25.217l11.82 2.076ZM123.773 46.14C115.107 43.458 105.747 42 96 42v12c8.552 0 16.715 1.28 24.227 3.603l3.546-11.463Zm31.313-29.385c-18.398 10.221-29.314 18.783-38.062 31.764l9.952 6.706c7.252-10.763 16.336-18.201 33.938-27.98l-5.828-10.49Z" fill="#000"/><path d="M140 82H80M140 106H80M140 130H80M60 82h-8M60 106h-8M60 130h-8" stroke="#000" stroke-width="12" stroke-linecap="round" stroke-linejoin="round"/></svg>
